images/arrow-left.svg

<svg height="18" viewBox="0 0 10 18" width="10" xmlns="http://www.w3.org/2000/svg"><path d="m3.01776695 123 6.61611653-6.805148c.48815532-.502103.48815532-1.316172 0-1.818275-.48815537-.502103-1.27961159-.502103-1.76776696 0l-7.5 7.714286c-.48815536.502102-.48815536 1.316172 0 1.818274l7.5 7.714286c.48815537.502103 1.27961159.502103 1.76776696 0 .48815532-.502103.48815532-1.316172 0-1.818275z" fill="#731982" transform="translate(0 -114)"/></svg>

<?xml version="1.0" encoding="UTF-8"?>
<svg width="10px" height="18px" viewBox="0 0 10 18" version="1.1" xmlns="http://www.w3.org/2000/svg" xmlns:xlink="http://www.w3.org/1999/xlink">
    <!-- Generator: Sketch 48.2 (47327) - http://www.bohemiancoding.com/sketch -->
    <title>Shape Copy</title>
    <desc>Created with Sketch.</desc>
    <defs></defs>
    <g id="Desktop-HD-Copy-25" stroke="none" stroke-width="1" fill="none" fill-rule="evenodd" transform="translate(-41.000000, -4113.000000)">
        <g id="Group-23" transform="translate(41.000000, 3999.000000)" fill="#731982" fill-rule="nonzero">
            <path d="M3.01776695,123 L9.63388348,116.194852 C10.1220388,115.692749 10.1220388,114.87868 9.63388348,114.376577 C9.14572811,113.874474 8.35427189,113.874474 7.86611652,114.376577 L0.366116524,122.090863 C-0.122038841,122.592965 -0.122038841,123.407035 0.366116524,123.909137 L7.86611652,131.623423 C8.35427189,132.125526 9.14572811,132.125526 9.63388348,131.623423 C10.1220388,131.12132 10.1220388,130.307251 9.63388348,129.805148 L3.01776695,123 Z" id="Shape-Copy" transform="translate(5.000000, 123.000000) rotate(-360.000000) translate(-5.000000, -123.000000) "></path>
        </g>
    </g>
</svg>
